X: 31893
T: Peach Blossoms
R: barndance
M: 4/4
K: Dmajor
~A2|:~A2 fA ~A2 fA|B2 g2 g2 ed|ceae ceae|b2 a2 a2 ~A2|
~A2 fA ~A2 fA|B2 g2 g2 ed|ceba ^ga=ge|1 d2 d2 d2 ~A2:|2 d2 d2 d2a2||
|:A/A/A A2 Bcde|fdAF A2A2|cAGA c2c2|bafd A2 a2|A/A/A A2 Bcde|
fdAF A4|dcBc dgfe|1 d2 d2 d4:|2 d2 d2 d2dc|
|:BDGB dgbg|a2 e2 e2 ag|(3fgf =c2 c2 fe|(3ded B2 B2 d=c|
BDGB dgbg|a2 e2 e2 ag|fdcA dcAF|1 G2 G2 G2 d=c:|2 G2 G2 G2||

